X:144
T:Craig's Pipes                                                                                     
M:4/4                                                                                               
K:G                                                                                                 
L:1/8                                                                                               
B2 B BAGA|B2 DB AGEG|B2 B BAGA|c2 Bc AGEG|                                                          
B2 B BAGA|B2 DB AGEG|Bded BcdB|AcBG AGEG ||                                                         
|: D2 G2 (3GGG DGBG|DGBG AGEG|DG (3GGG GABc|dBAc BAGE :|                                            
|: dB (3Bcdefge|dB (3BBB AGED|dB (3Bcd ef (3gfg|1 agbg ageg :|                                      
E:lw200                                                                                             
|2 "Intro to Pachelbel Reel"a3 z g3 z |>|                                                           
E:lw0
